dist/svg/desktop-cloud-down.svg

<!-- Generated by Trend Micro Style Portal -->
<svg version="1.1" xmlns="http://www.w3.org/2000/svg" width="16" height="16" viewBox="0 0 16 16">
  <title>desktop-cloud-down</title>
  <path fill="rgb(34,34,34)" d="M8 4h3v-4h2v4h3l-4 4zM16 14c0 1.105-0.895 2-2 2v0h-11.5c-1.381 0-2.5-1.119-2.5-2.5s1.119-2.5 2.5-2.5v0c0.233 0.005 0.456 0.041 0.668 0.105l-0.018-0.005v-0.1c0.138-0.386 0.339-0.719 0.593-1.003l-0.003 0.003c0.541-0.632 1.339-1.029 2.23-1.029s1.689 0.398 2.227 1.025l0.003 0.004c0.080 0.078 0.155 0.159 0.226 0.245l0.004 0.005c0.312-0.15 0.678-0.237 1.065-0.237 1.201 0 2.205 0.844 2.452 1.971l0.003 0.017h2.050c1.105 0 2 0.895 2 2v0zM15 14c0-0.552-0.448-1-1-1v0h-2.87l-0.13-0.8c-0.144-0.69-0.747-1.2-1.47-1.2-0.011 0-0.021 0-0.032 0l0.002-0c-0.233 0.002-0.453 0.057-0.649 0.154l0.009-0.004-0.75 0.36-0.37-0.51-0.12-0.16c-0.369-0.489-0.948-0.801-1.601-0.801-0.721 0-1.352 0.381-1.704 0.953l-0.005 0.009c-0.076 0.115-0.143 0.247-0.195 0.386l-0.005 0.014-0.29 0.91-0.93-0.25c-0.116-0.035-0.25-0.057-0.388-0.060l-0.002-0c-0.828 0-1.5 0.672-1.5 1.5s0.672 1.5 1.5 1.5v0h11.5c0.552 0 1-0.448 1-1v0zM13 8.41v0.59h-3.5c1.382 0.019 2.573 0.819 3.151 1.979l0.009 0.021h1.34c0.552 0 1-0.448 1-1v0-3.59l-1 1zM2.5 10v0c0.229-0.386 0.504-0.716 0.825-0.996l0.005-0.004h-0.33v-7h7v-2h-8c-0.552 0-1 0.448-1 1v0 9c0.003 0.116 0.024 0.225 0.062 0.327l-0.002-0.007c0.422-0.2 0.917-0.318 1.439-0.32h0.001z"></path>
</svg>

<svg width="16" height="16" viewBox="0 0 16 16" fill="rgb(34, 34, 34)" xmlns="http://www.w3.org/2000/svg"><title>desktop-cloud-down</title><path d="M8 4H11V0H13V4H16L12 8L8 4ZM16 14C16 15.105 15.105 16 14 16H2.5C1.119 16 0 14.881 0 13.5C0 12.119 1.119 11 2.5 11C2.733 11.005 2.956 11.041 3.168 11.105L3.15 11.1V11C3.288 10.614 3.489 10.281 3.743 9.997L3.74 10C4.281 9.368 5.079 8.971 5.97 8.971C6.861 8.971 7.659 9.369 8.197 9.996L8.2 10C8.28 10.078 8.355 10.159 8.426 10.245L8.43 10.25C8.742 10.1 9.108 10.013 9.495 10.013C10.696 10.013 11.7 10.857 11.947 11.984L11.95 12.001H14C15.105 12.001 16 12.896 16 14.001V14ZM15 14C15 13.448 14.552 13 14 13H11.13L11 12.2C10.856 11.51 10.253 11 9.53 11C9.519 11 9.509 11 9.498 11H9.5C9.267 11.002 9.047 11.057 8.851 11.154L8.86 11.15L8.11 11.51L7.74 11L7.62 10.84C7.251 10.351 6.672 10.039 6.019 10.039C5.298 10.039 4.667 10.42 4.315 10.992L4.31 11.001C4.234 11.116 4.167 11.248 4.115 11.387L4.11 11.401L3.82 12.311L2.89 12.061C2.774 12.026 2.64 12.004 2.502 12.001H2.5C1.672 12.001 1 12.673 1 13.501C1 14.329 1.672 15.001 2.5 15.001H14C14.552 15.001 15 14.553 15 14.001V14ZM13 8.41V9H9.5C10.882 9.019 12.073 9.819 12.651 10.979L12.66 11H14C14.552 11 15 10.552 15 10V6.41L14 7.41L13 8.41ZM2.5 10C2.729 9.614 3.004 9.284 3.325 9.004L3.33 9H3V2H10V0H2C1.448 0 1 0.448 1 1V10C1.003 10.116 1.024 10.225 1.062 10.327L1.06 10.32C1.482 10.12 1.978 10.002 2.5 10Z" fill="rgb(34, 34, 34)" fill-opacity="1.00"/></svg>
